src/assets/icons/dominos.svg

<svg width="142" height="28" viewBox="0 0 142 28" fill="none" xmlns="http://www.w3.org/2000/svg">
<path d="M141.122 17.5175C140.913 16.4619 139.964 15.7009 138.951 15.777C137.818 15.8628 136.964 16.7031 136.909 17.8074C136.866 18.3498 137.03 18.8885 137.368 19.3146C137.707 19.7408 138.194 20.0226 138.732 20.1033C139.744 20.2733 140.751 19.6176 141.074 18.5927C141.109 18.4793 141.074 18.3417 141.184 18.251V17.6859C141.122 17.6455 141.134 17.5775 141.122 17.5175ZM139.033 19.7844C138.548 19.7844 138.083 19.5916 137.74 19.2485C137.397 18.9053 137.204 18.44 137.204 17.9547C137.204 17.4695 137.397 17.0041 137.74 16.661C138.083 16.3178 138.548 16.1251 139.033 16.1251C139.519 16.1251 139.984 16.3178 140.327 16.661C140.67 17.0041 140.863 17.4695 140.863 17.9547C140.863 18.44 140.67 18.9053 140.327 19.2485C139.984 19.5916 139.519 19.7844 139.033 19.7844Z" fill="#8F90A6"/>
<path d="M46.4605 13.0328C44.8413 11.9091 43.0166 11.4509 41.0768 11.425C38.7032 11.3942 36.3263 11.425 33.9526 11.425C33.394 11.425 33.292 11.5254 33.292 12.0726V19.8445C33.292 22.4449 33.292 25.0452 33.292 27.6456C33.292 28.1491 33.4199 28.2738 33.9202 28.2738C36.2226 28.2738 38.5245 28.2738 40.8259 28.2738C41.7154 28.2772 42.602 28.1734 43.4667 27.9645C46.1237 27.3056 48.1088 25.8273 49.1531 23.2399C49.7733 21.7049 49.8882 20.0971 49.6745 18.4715C49.3766 16.2079 48.3581 14.354 46.4605 13.0328ZM43.4716 22.7477C42.7251 23.4876 41.7957 23.7855 40.7708 23.8163C40.0293 23.839 39.2861 23.8163 38.5429 23.8163C38.3664 23.8163 38.3113 23.7677 38.3113 23.588C38.3178 21.0816 38.3178 18.5751 38.3113 16.0687C38.3113 15.9068 38.3583 15.855 38.5234 15.8582C38.9525 15.8695 39.3816 15.8582 39.8107 15.8582C40.5425 15.8582 41.276 15.8242 41.9933 16.0201C43.5493 16.4265 44.5143 17.6198 44.6487 19.3118C44.7539 20.6266 44.4301 21.7956 43.4716 22.746V22.7477Z" fill="#8F90A6"/>
<path d="M83.0194 15.9142C81.1687 15.4706 79.5237 15.9142 78.1231 17.2096C77.9142 17.4039 77.7345 17.6273 77.5321 17.8475C77.1063 16.7611 76.3404 16.0907 75.2167 15.8738C73.3013 15.5062 71.6239 16.0033 70.1763 17.331C70.1634 17.3116 70.1537 17.3051 70.1537 17.297C70.1537 17.0671 70.1537 16.8371 70.1537 16.6072C70.1537 16.2024 70.0079 16.0551 69.6096 16.0535C68.4806 16.0535 67.3509 16.0535 66.2208 16.0535C65.8192 16.0535 65.6719 16.1944 65.6719 16.6024C65.6719 20.3102 65.6719 24.0175 65.6719 27.7243C65.6719 28.1274 65.8208 28.2651 66.2289 28.2651H69.5238C70.0306 28.2651 70.1537 28.1436 70.1537 27.6417C70.1537 25.4289 70.1537 23.216 70.1537 21.0032C70.1537 20.8818 70.1261 20.7587 70.2249 20.6486C70.5714 20.2568 70.9681 19.9297 71.4943 19.839C72.5419 19.648 73.3256 20.0301 73.3094 21.2963C73.2835 23.4271 73.3094 25.5579 73.3094 27.6887C73.3094 28.1533 73.4373 28.278 73.9068 28.278H77.171C77.6649 28.278 77.7782 28.1647 77.7782 27.6725V21.034C77.7677 20.9623 77.7721 20.8892 77.791 20.8193C77.8099 20.7494 77.8431 20.6841 77.8883 20.6276C78.1568 20.319 78.4948 20.0787 78.8744 19.9265C80.1017 19.4715 80.9679 20.0625 80.9793 21.3594V27.7502C80.9793 28.1291 81.1137 28.2796 81.465 28.2813C82.6265 28.2813 83.7879 28.2813 84.9494 28.2813C85.2732 28.2813 85.4352 28.1194 85.4352 27.7955C85.4352 24.8924 85.4513 21.9893 85.4352 19.0862C85.3979 17.4541 84.5058 16.2721 83.0194 15.9142Z" fill="#8F90A6"/>
<path d="M26.3622 5.32882L20.8296 -0.307421C20.7351 -0.410499 20.6191 -0.491609 20.4899 -0.54504C20.3606 -0.598471 20.2212 -0.622924 20.0815 -0.616678C19.6589 -0.647442 19.3999 -0.352756 19.1279 -0.0742636L14.9181 4.22295C13.5289 5.64132 12.138 7.05861 10.7456 8.47482C10.6176 8.60273 10.5836 8.67397 10.7342 8.8197C13.8117 11.95 16.8848 15.0804 19.9536 18.2107C20.1674 18.4293 20.2483 18.3046 20.3843 18.1654C23.207 15.2833 26.0297 12.4034 28.8524 9.52564C29.3803 8.98646 29.377 8.39224 28.8411 7.85468C28.0121 7.01758 27.1896 6.16916 26.3622 5.32882ZM20.0993 11.0671C19.4642 11.0615 18.8573 10.8038 18.4122 10.3508C17.967 9.89774 17.7201 9.28643 17.7257 8.65131C17.7313 8.01619 17.9889 7.4093 18.442 6.96415C18.895 6.519 19.5063 6.27205 20.1414 6.27764C20.4559 6.2804 20.7668 6.34508 21.0563 6.46798C21.3457 6.59088 21.6082 6.76959 21.8286 6.99392C22.049 7.21824 22.2231 7.48379 22.3409 7.77538C22.4587 8.06698 22.5179 8.37893 22.5151 8.69341C22.5123 9.00789 22.4477 9.31874 22.3248 9.60822C22.2019 9.8977 22.0232 10.1601 21.7988 10.3806C21.5745 10.601 21.309 10.775 21.0174 10.8928C20.7258 11.0106 20.4138 11.0698 20.0993 11.0671Z" fill="#8F90A6"/>
<path d="M19.4001 18.7982C19.188 18.5991 18.9921 18.3789 18.7881 18.17C15.9384 15.2706 13.0898 12.3691 10.2422 9.46548C10.0593 9.27765 9.96535 9.25013 9.75648 9.45576C7.94304 11.321 6.11503 13.1798 4.29187 15.0321C3.27505 16.0683 2.25337 17.1014 1.24302 18.1457C0.75728 18.6428 0.773471 19.2257 1.25112 19.726C1.46808 19.9527 1.69476 20.168 1.91497 20.3931C4.37715 22.9092 6.84095 25.4259 9.30636 27.9431C9.40533 28.0452 9.52427 28.1258 9.65576 28.1798C9.78725 28.2339 9.92846 28.2602 10.0706 28.2573C10.216 28.2496 10.3584 28.2132 10.4896 28.1501C10.6208 28.0871 10.7381 27.9985 10.8348 27.8897C12.1679 26.5307 13.5016 25.1733 14.8357 23.8176C16.3599 22.2664 17.8851 20.7169 19.4114 19.169C19.5669 19.0119 19.541 18.9326 19.4001 18.7982ZM6.57649 21.2755C6.10436 21.2825 5.64078 21.1493 5.24447 20.8926C4.84815 20.6359 4.53695 20.2674 4.35028 19.8337C4.16361 19.4 4.10988 18.9206 4.1959 18.4563C4.28191 17.992 4.5038 17.5638 4.83344 17.2257C5.16309 16.8876 5.58567 16.655 6.04763 16.5574C6.50959 16.4597 6.99015 16.5013 7.42842 16.677C7.86669 16.8527 8.24295 17.1546 8.50953 17.5443C8.7761 17.934 8.921 18.3941 8.92586 18.8662C8.93565 19.1804 8.88205 19.4933 8.76825 19.7862C8.65445 20.0792 8.48279 20.3463 8.26352 20.5714C8.04424 20.7966 7.78185 20.9753 7.49199 21.0968C7.20214 21.2183 6.89078 21.2802 6.57649 21.2788V21.2755ZM13.4821 21.3889C12.8605 21.3753 12.2691 21.118 11.8354 20.6725C11.4017 20.227 11.1604 19.6289 11.1635 19.0071C11.1728 18.5467 11.318 18.0994 11.5808 17.7213C11.8436 17.3433 12.2124 17.0514 12.6407 16.8823C13.069 16.7133 13.5377 16.6747 13.9879 16.7713C14.4381 16.8679 14.8497 17.0955 15.1708 17.4255C15.492 17.7554 15.7085 18.1729 15.793 18.6256C15.8775 19.0782 15.8263 19.5457 15.6458 19.9693C15.4653 20.3929 15.1636 20.7537 14.7786 21.0063C14.3936 21.2588 13.9426 21.392 13.4821 21.3889Z" fill="#8F90A6"/>
<path d="M107.2 19.1544C107.14 17.4866 106.092 16.2172 104.467 15.8934C102.477 15.4967 100.67 15.8934 99.1235 17.4008C99.1235 17.0964 99.1235 16.8503 99.1235 16.6042C99.1235 16.1849 98.9988 16.0569 98.5875 16.0569C97.4671 16.0569 96.3472 16.0569 95.2278 16.0569C94.8036 16.0569 94.6562 16.1978 94.6562 16.6123C94.6562 20.3094 94.6562 24.0064 94.6562 27.7034C94.6562 28.1244 94.8003 28.2685 95.2181 28.2685H98.5454C99.0004 28.2685 99.1235 28.1471 99.1235 27.6986C99.1235 25.5581 99.1397 23.4176 99.1121 21.2771C99.0956 21.0766 99.1343 20.8754 99.2239 20.6953C99.3135 20.5152 99.4507 20.3631 99.6205 20.2554C99.7128 20.1869 99.8084 20.1231 99.9071 20.0643C101.364 19.2337 102.75 20.019 102.75 21.6835V27.6371C102.75 28.1633 102.862 28.2718 103.398 28.2718H106.664C107.091 28.2718 107.219 28.1438 107.219 27.7099C107.219 26.1232 107.219 24.5359 107.219 22.948C107.218 21.6818 107.247 20.4173 107.2 19.1544Z" fill="#8F90A6"/>
<path d="M57.7617 15.7023C54.2806 15.5404 51.2851 18.3027 51.1621 21.9117C51.0471 25.2747 53.4969 28.3009 57.0509 28.5778C60.5191 28.8465 63.5809 26.1248 63.7979 22.561C64.0197 18.9034 61.2898 15.8659 57.7617 15.7023ZM59.6286 22.1206C59.5622 23.3722 58.5859 24.2886 57.378 24.2255C56.9457 24.2121 56.5272 24.0707 56.1754 23.8191C55.8236 23.5676 55.5544 23.2174 55.4019 22.8127C55.2494 22.408 55.2204 21.9672 55.3187 21.5461C55.4169 21.125 55.638 20.7425 55.9538 20.4471C56.2696 20.1517 56.6661 19.9567 57.0928 19.8868C57.5196 19.8169 57.9575 19.8753 58.351 20.0545C58.7446 20.2338 59.0761 20.5258 59.3035 20.8936C59.531 21.2614 59.6441 21.6884 59.6286 22.1206Z" fill="#8F90A6"/>
<path d="M114.648 15.7661C111.429 16.1531 109.083 18.8781 109.083 22.2135C109.073 22.7662 109.143 23.3174 109.289 23.8505C110.098 27.0483 113.382 29.1515 116.55 28.5007C117.436 28.3243 118.275 27.9636 119.013 27.442C119.75 26.9204 120.37 26.2496 120.831 25.473C121.293 24.6965 121.586 23.8316 121.691 22.9345C121.796 22.0374 121.712 21.1281 121.443 20.2657C120.579 17.403 117.857 15.3807 114.648 15.7661ZM115.394 24.2666C114.823 24.2526 114.279 24.0162 113.88 23.6076C113.48 23.199 113.256 22.6506 113.254 22.079C113.253 21.5074 113.474 20.9578 113.872 20.5471C114.269 20.1365 114.812 19.8973 115.383 19.8803C115.954 19.8943 116.498 20.1307 116.898 20.5393C117.297 20.9479 117.522 21.4964 117.523 22.0679C117.525 22.6395 117.303 23.1891 116.905 23.5998C116.508 24.0104 115.966 24.2497 115.394 24.2666Z" fill="#8F90A6"/>
<path d="M134.507 21.1041C133.631 20.6766 132.684 20.5196 131.732 20.3803C131.102 20.288 130.461 20.2572 129.852 20.0468C129.69 19.9885 129.517 19.9075 129.505 19.6889C129.503 19.5941 129.53 19.5007 129.582 19.4214C129.634 19.3421 129.709 19.2806 129.797 19.2453C130.048 19.1197 130.325 19.0543 130.606 19.0542C131.776 18.996 132.93 19.3388 133.879 20.0257C134.193 20.2411 134.415 20.1876 134.603 19.8541C134.985 19.1838 135.362 18.5118 135.736 17.8382C135.916 17.5144 135.861 17.3201 135.551 17.1291C134.251 16.3177 132.762 15.858 131.23 15.7949C129.923 15.7334 128.639 15.8159 127.422 16.3616C126.087 16.9623 125.254 17.9386 125.216 19.4606C125.176 21.0701 125.9 22.2132 127.365 22.8884C128.286 23.3126 129.276 23.481 130.266 23.6413C130.874 23.74 131.491 23.8032 132.07 24.0218C132.308 24.114 132.546 24.2403 132.528 24.548C132.511 24.8556 132.264 24.9333 132.043 25.0127C131.613 25.1503 131.16 25.202 130.71 25.1649C129.415 25.0953 128.262 24.5933 127.159 23.9521C126.771 23.7255 126.594 23.7627 126.366 24.148C125.945 24.8562 125.526 25.5659 125.109 26.2772C124.876 26.6755 124.914 26.8617 125.305 27.1046C126.751 27.9819 128.394 28.4829 130.083 28.5618C131.379 28.5877 132.36 28.5035 133.31 28.2186C135.198 27.6519 136.261 26.4375 136.431 24.6565C136.591 23.0341 135.917 21.7938 134.507 21.1041Z" fill="#8F90A6"/>
<path d="M91.6774 16.0569C90.5904 16.0569 89.5029 16.0569 88.4148 16.0569C87.8773 16.0569 87.751 16.1816 87.751 16.7175V27.5204C87.751 28.1681 87.8449 28.2701 88.4844 28.2701H91.6871C92.1016 28.2701 92.2538 28.1211 92.2554 27.705C92.2554 24.008 92.2554 20.3125 92.2554 16.6187C92.2506 16.2075 92.0951 16.0569 91.6774 16.0569Z" fill="#8F90A6"/>
<path d="M122.837 10.1603C122.196 10.2596 121.62 10.6063 121.232 11.1258C120.844 11.6454 120.676 12.2963 120.763 12.9388C120.915 13.9329 121.658 14.6567 122.769 14.8461C123.025 14.8899 122.994 14.9757 122.918 15.1457C122.783 15.4421 122.564 15.6921 122.288 15.8646C122.249 15.8819 122.215 15.9076 122.188 15.9399C122.161 15.9722 122.141 16.0102 122.131 16.0511C122.12 16.0919 122.119 16.1347 122.127 16.1761C122.135 16.2176 122.152 16.2566 122.178 16.2904C122.605 16.951 122.523 16.9834 123.198 16.6499L123.282 16.6094C124.801 15.782 125.72 14.5612 125.808 13.0942C125.816 11.1286 124.449 9.92071 122.837 10.1603Z" fill="#8F90A6"/>
<path d="M90.1182 10.068C89.61 10.0583 89.1105 10.2002 88.6832 10.4755C88.2559 10.7507 87.9203 11.147 87.719 11.6137C87.5177 12.0804 87.46 12.5965 87.5531 13.0962C87.6462 13.5959 87.8859 14.0565 88.2417 14.4195C88.5975 14.7824 89.0534 15.0312 89.5511 15.1342C90.0488 15.2371 90.566 15.1896 91.0366 14.9976C91.5072 14.8056 91.91 14.4778 92.1937 14.0561C92.4774 13.6344 92.6291 13.1377 92.6295 12.6295C92.6331 12.2963 92.571 11.9657 92.4467 11.6565C92.3224 11.3474 92.1384 11.0658 91.9051 10.8279C91.6719 10.5899 91.394 10.4003 91.0873 10.27C90.7807 10.1396 90.4514 10.0709 90.1182 10.068Z" fill="#8F90A6"/>
<path d="M20.7419 25.3737C20.4991 25.4012 20.1671 25.1665 20.023 25.5826C19.8611 26.023 19.6911 26.4569 19.5033 26.9459C19.3495 26.5379 19.2135 26.1801 19.0775 25.8222C18.8945 25.3365 18.8945 25.3527 18.3683 25.3575C18.1772 25.3575 18.1141 25.4142 18.1173 25.6069C18.127 26.3063 18.1319 27.0058 18.1173 27.7118C18.1173 27.966 18.2371 27.9595 18.4233 27.9708C18.6484 27.9838 18.6775 27.8834 18.6743 27.6956C18.663 27.226 18.6743 26.7565 18.6743 26.2869C18.9053 26.7559 19.1122 27.2363 19.2944 27.7263C19.3333 27.8235 19.3333 27.9595 19.4968 27.966C19.6603 27.9724 19.6814 27.8251 19.7235 27.7166C19.9129 27.2309 20.0959 26.7548 20.2805 26.2723C20.3223 26.7515 20.3353 27.2327 20.3193 27.7134C20.3193 27.9303 20.3987 27.9757 20.5946 27.9692C20.7905 27.9627 20.9087 27.9692 20.9022 27.715C20.8844 27.0463 20.9022 26.3792 20.8909 25.7105C20.8844 25.5826 20.988 25.3462 20.7419 25.3737Z" fill="#8F90A6"/>
<path d="M17.5934 25.356C17.0704 25.3706 16.5474 25.3673 16.026 25.356C15.8366 25.356 15.7734 25.4078 15.7734 25.6021C15.7734 25.7964 15.8236 25.8968 16.0341 25.8709C16.1167 25.8595 16.196 25.8709 16.2851 25.8709C16.4632 25.8514 16.5247 25.9259 16.5166 26.1024C16.5037 26.3728 16.5166 26.6448 16.5166 26.912C16.5166 27.1791 16.528 27.4755 16.5166 27.7572C16.5037 28.0049 16.6785 27.9482 16.8081 27.9531C16.9376 27.958 17.0979 27.9839 17.0898 27.7458C17.0752 27.2973 17.0898 26.8488 17.0898 26.3987C17.0898 25.8935 17.0898 25.8838 17.6063 25.8725C17.7957 25.8725 17.8314 25.7915 17.8281 25.6264C17.8249 25.4612 17.8168 25.3511 17.5934 25.356Z" fill="#8F90A6"/>
<path d="M139.987 17.2649C139.901 16.912 139.589 16.7128 139.113 16.7112C138.883 16.7112 138.651 16.7112 138.421 16.7112C138.277 16.7112 138.219 16.7533 138.219 16.9071C138.219 17.6066 138.219 18.306 138.219 19.012C138.219 19.1221 138.219 19.216 138.381 19.2144C138.543 19.2128 138.596 19.1788 138.586 19.0217C138.577 18.8551 138.577 18.688 138.586 18.5214C138.594 18.421 138.517 18.2672 138.693 18.2397C138.834 18.2186 138.978 18.2073 139.072 18.3757C139.181 18.5764 139.331 18.7562 139.438 18.9586C139.564 19.2014 139.736 19.2727 140.018 19.1674L139.42 18.2429C139.908 18.0049 140.089 17.6875 139.987 17.2649ZM138.946 17.8932C138.547 17.9272 138.552 17.7183 138.581 17.511C138.581 16.98 138.526 17.035 138.999 17.0253C139.433 17.0253 139.631 17.1564 139.637 17.4495C139.644 17.7426 139.436 17.8527 138.946 17.8932Z" fill="#8F90A6"/>
</svg>

<svg width="142" height="28" fill="none" xmlns="http://www.w3.org/2000/svg"><path d="M141.122 17.517c-.209-1.055-1.158-1.816-2.171-1.74-1.133.086-1.987.926-2.042 2.03a2.152 2.152 0 0 0 1.823 2.296c1.012.17 2.019-.485 2.342-1.51.035-.114 0-.251.11-.342v-.565c-.062-.04-.05-.108-.062-.169Zm-2.089 2.267a1.828 1.828 0 0 1-1.293-3.123 1.828 1.828 0 0 1 3.123 1.294 1.83 1.83 0 0 1-1.83 1.83ZM46.46 13.033c-1.619-1.124-3.443-1.582-5.383-1.608-2.374-.03-4.75 0-7.124 0-.559 0-.661.1-.661.648v15.573c0 .503.128.628.628.628h6.906c.89.003 1.776-.1 2.64-.31 2.658-.658 4.643-2.137 5.687-4.724.62-1.535.735-3.143.522-4.768-.298-2.264-1.317-4.118-3.214-5.44Zm-2.988 9.715c-.747.74-1.676 1.037-2.701 1.068-.742.023-1.485 0-2.228 0-.177 0-.232-.048-.232-.228.007-2.506.007-5.013 0-7.52 0-.161.047-.213.212-.21.43.011.859 0 1.288 0 .731 0 1.465-.034 2.182.162 1.556.407 2.521 1.6 2.656 3.292.105 1.315-.219 2.484-1.177 3.434v.002ZM83.02 15.914c-1.851-.443-3.496 0-4.897 1.296-.209.194-.389.417-.59.637-.427-1.086-1.193-1.756-2.316-1.973-1.916-.368-3.593.13-5.04 1.457-.014-.02-.023-.026-.023-.034v-.69c0-.405-.146-.552-.544-.553h-3.39c-.4 0-.548.14-.548.548v11.122c0 .403.149.541.557.541h3.295c.507 0 .63-.121.63-.623v-6.639c0-.121-.028-.244.07-.354.347-.392.744-.72 1.27-.81 1.048-.191 1.832.191 1.815 1.457-.025 2.131 0 4.262 0 6.393 0 .464.128.589.598.589h3.264c.494 0 .607-.113.607-.605v-6.639a.529.529 0 0 1 .11-.406 2.58 2.58 0 0 1 .986-.701c1.228-.456 2.094.136 2.105 1.432v6.391c0 .38.135.53.486.531h3.484c.324 0 .486-.162.486-.485 0-2.904.016-5.807 0-8.71-.037-1.632-.93-2.814-2.416-3.172ZM26.362 5.329 20.83-.307a.957.957 0 0 0-.748-.31c-.423-.03-.682.264-.954.543l-4.21 4.297c-1.39 1.418-2.78 2.836-4.172 4.252-.128.128-.162.199-.012.345 3.078 3.13 6.15 6.26 9.22 9.39.213.22.294.095.43-.045 2.823-2.882 5.646-5.762 8.468-8.64.528-.539.525-1.133-.01-1.67-.83-.837-1.652-1.686-2.48-2.526ZM20.1 11.067a2.395 2.395 0 1 1 .043-4.79 2.395 2.395 0 0 1-.043 4.79ZM19.4 18.798c-.212-.199-.408-.42-.612-.628-2.85-2.9-5.698-5.8-8.546-8.705-.183-.187-.277-.215-.486-.01a1270.017 1270.017 0 0 1-5.464 5.577c-1.017 1.036-2.039 2.07-3.049 3.114-.486.497-.47 1.08.008 1.58.217.227.444.442.664.667l7.391 7.55a1.033 1.033 0 0 0 .765.314 1.1 1.1 0 0 0 .764-.367c1.333-1.36 2.667-2.717 4-4.072 1.525-1.552 3.05-3.101 4.576-4.649.156-.157.13-.236-.01-.37ZM6.576 21.276a2.385 2.385 0 1 1 2.35-2.41 2.34 2.34 0 0 1-2.35 2.413v-.003Zm6.906.113a2.37 2.37 0 0 1-2.318-2.382 2.335 2.335 0 1 1 2.318 2.382ZM107.2 19.154c-.06-1.667-1.108-2.937-2.733-3.26-1.99-.397-3.797 0-5.343 1.507v-.797c0-.42-.125-.547-.536-.547h-3.36c-.424 0-.572.14-.572.555v11.091c0 .421.144.566.562.566h3.327c.455 0 .579-.122.579-.57 0-2.14.016-4.281-.012-6.422a1.103 1.103 0 0 1 .509-1.022c.092-.068.187-.132.286-.19 1.457-.831 2.843-.046 2.843 1.618v5.954c0 .526.112.635.648.635h3.266c.427 0 .555-.128.555-.562v-4.762c-.001-1.266.028-2.53-.019-3.794ZM57.762 15.702c-3.481-.162-6.477 2.6-6.6 6.21-.115 3.363 2.335 6.389 5.889 6.666 3.468.268 6.53-2.453 6.747-6.017.222-3.658-2.508-6.695-6.036-6.859Zm1.867 6.419c-.067 1.251-1.043 2.168-2.251 2.105a2.183 2.183 0 1 1 2.25-2.105ZM114.648 15.766c-3.219.387-5.565 3.112-5.565 6.447a5.8 5.8 0 0 0 .206 1.637c.809 3.198 4.093 5.301 7.261 4.65a6.449 6.449 0 0 0 4.281-3.027 6.425 6.425 0 0 0 .612-5.207c-.864-2.863-3.586-4.885-6.795-4.5Zm.746 8.5a2.192 2.192 0 0 1-2.14-2.187 2.195 2.195 0 0 1 2.129-2.199 2.196 2.196 0 0 1 2.14 2.188 2.19 2.19 0 0 1-2.129 2.199ZM134.507 21.104c-.876-.427-1.823-.584-2.775-.724-.63-.092-1.271-.123-1.88-.333-.162-.059-.335-.14-.347-.358a.47.47 0 0 1 .292-.444 1.81 1.81 0 0 1 .809-.19 5.145 5.145 0 0 1 3.273.97c.314.216.536.163.724-.17.382-.671.759-1.343 1.133-2.017.18-.324.125-.518-.185-.709a8.848 8.848 0 0 0-4.321-1.334c-1.307-.062-2.591.02-3.808.567-1.335.6-2.168 1.577-2.206 3.099-.04 1.61.684 2.752 2.149 3.427.921.425 1.911.593 2.901.753.608.099 1.225.162 1.804.38.238.093.476.22.458.527-.017.308-.264.385-.485.465-.43.137-.883.189-1.333.152-1.295-.07-2.448-.572-3.551-1.213-.388-.227-.565-.19-.793.196-.421.708-.84 1.418-1.257 2.13-.233.398-.195.584.196.827a10.123 10.123 0 0 0 4.778 1.457c1.296.026 2.277-.059 3.227-.343 1.888-.567 2.951-1.782 3.121-3.563.16-1.622-.514-2.862-1.924-3.552ZM91.677 16.057h-3.262c-.538 0-.664.125-.664.66V27.52c0 .648.094.75.733.75h3.203c.415 0 .567-.149.568-.565V16.619c-.004-.412-.16-.562-.578-.562ZM122.837 10.16a2.476 2.476 0 0 0-2.074 2.779c.152.994.895 1.718 2.006 1.907.256.044.225.13.149.3a1.658 1.658 0 0 1-.63.719.276.276 0 0 0-.157.186.278.278 0 0 0 .047.24c.427.66.345.692 1.02.359l.084-.04c1.519-.828 2.438-2.049 2.526-3.516.008-1.965-1.359-3.173-2.971-2.934ZM90.118 10.068a2.56 2.56 0 1 0 2.511 2.562 2.535 2.535 0 0 0-2.51-2.562ZM20.742 25.374c-.243.027-.575-.207-.719.209-.162.44-.332.874-.52 1.363l-.425-1.124c-.183-.485-.183-.47-.71-.464-.19 0-.254.056-.25.249.009.7.014 1.399 0 2.105 0 .254.12.247.305.259.225.013.255-.088.251-.275-.011-.47 0-.94 0-1.41.231.47.438.95.62 1.44.04.098.04.233.203.24.163.006.184-.14.227-.25.189-.485.372-.961.556-1.444.042.48.055.96.04 1.441 0 .217.079.263.275.256.196-.006.314 0 .307-.254-.018-.669 0-1.336-.011-2.005-.007-.127.097-.364-.15-.336ZM17.593 25.356c-.523.015-1.046.011-1.567 0-.19 0-.253.052-.253.246s.05.295.261.269c.083-.011.162 0 .251 0 .178-.02.24.055.232.231-.013.27 0 .543 0 .81s.011.564 0 .845c-.013.248.162.191.291.196.13.005.29.03.282-.207-.015-.449 0-.897 0-1.347 0-.506 0-.515.516-.527.19 0 .225-.08.222-.246-.003-.165-.011-.275-.235-.27Z" fill="#8F90A6"/><path d="M139.987 17.265c-.086-.353-.398-.552-.874-.554h-.692c-.144 0-.202.042-.202.196v2.105c0 .11 0 .204.162.202.162-.001.215-.035.205-.192a4.639 4.639 0 0 1 0-.5c.008-.101-.069-.255.107-.282.141-.021.285-.033.379.136.109.2.259.38.366.583.126.242.298.314.58.208l-.598-.924c.488-.238.669-.555.567-.978Zm-1.041.628c-.399.034-.394-.175-.365-.382 0-.531-.055-.476.418-.486.434 0 .632.131.638.425.007.293-.201.403-.691.443Z" fill="#8F90A6"/></svg>
